X:634
L:1/8
M:3/4
K:G
 G2 |:"G" B3 d ^cd | e3 d d2 | (db) (bg) (gB) |"D7" d3 c c2 | A3 d ^cd | e3 d d2 | 
 (dc') (c'f) (fc) |"G" e3 d d2 | B3 d ^cd | e3 d d2 | (db) (bg) (gd) |"C" f3 e e2 | 
 (ec') (c'e) (c'e) |"G" db bd bd |"D7" ca ad fa |1"G" g2 z2 G2 :|2"G" g2 z2 gf |:"C" e3 g c'2 | 
 z2 eg fe |"G" d3 g b2 | z2 a3 g |"D7" gf fc f2 | fe eA e2 |"G" ed dB d2 | z2 d3 ^d |"C" e3 g c'2 | 
 z2 eg fe |"G" d3 g b2 | z2 a3 g |"D7" gf fc f2 | fe ed ef |"G" g2 fg ba |1 g2 z2 gf :|2 
 g2 z2 g2 |:[K:C]"C" e2 ee ee | e2 d2 c2 |"G7" Bg fg f2 | z2 d3 c | Bg fg f2 | z2 e3 d | 
"C" cg eg e2 | z2 G2 c2 | e2 ee ee | e2 d2 c2 |"G7" Bg fg f2 | z2 d3 c | Bg fg f2 | z2 a2 g2 | 
"C" c2 ag eg |1 c'2 G2 c2 :|2 c'2 c'2 b2 |:"F" a3 f f2 | z2 cf ac' |"C" g3 e e2 | z2 Gc ea | 
"G7" gf fB d2 | gf fB d2 |"C" ag gc e2 | z2 c'2 b2 |"F" a3 f f2 | z2 cf ac' |"C" g3 e e2 | 
 z2 Gc ea |"F" !>!a3 d' d'2 |"C" !>!g3 c' c'2 |"G7" b2 ag fd |1"C" c2 c'2 b2 :|2"C" c2 z2 z2 |]

